public/images/facebook.svg

<svg viewBox="0 0 50 50" xmlns="http://www.w3.org/2000/svg"><g fill="#a2a09e"><path d="m32.76 14.92v-4.92h-5.34c-2.25 0-5.5 2.57-5.5 5.49v5.21h-4.69v5.55h4.62v13.75h5.47v-13.81h4.83l.61-5.43h-5.38v-4a1.85 1.85 0 0 1 1.8-1.89h3.58"/><path d="m43.88 50h-37.76a6.12 6.12 0 0 1 -6.12-6.12v-37.75a6.13 6.13 0 0 1 6.12-6.13h37.76a6.13 6.13 0 0 1 6.12 6.13v37.75a6.13 6.13 0 0 1 -6.12 6.12m-37.76-47.89a4 4 0 0 0 -4 4v37.77a4 4 0 0 0 4 4h37.76a4 4 0 0 0 4-4v-37.75a4 4 0 0 0 -4-4z"/></g></svg>

<svg xmlns="http://www.w3.org/2000/svg" viewBox="0 0 50 50"><defs><style>.cls-1{fill:#a2a09e;}</style></defs><g id="Layer_2" data-name="Layer 2"><g id="Layer_1-2" data-name="Layer 1"><path class="cls-1" d="M32.76,14.92V10l-5.34,0c-2.25,0-5.5,2.57-5.5,5.49V20.7H17.23v5.55h4.62V40h5.47V26.19h4.83l.61-5.43H27.38v-4a1.85,1.85,0,0,1,1.8-1.89l3.58,0"/><path class="cls-1" d="M43.88,50H6.12A6.12,6.12,0,0,1,0,43.88V6.13A6.13,6.13,0,0,1,6.12,0H43.88A6.13,6.13,0,0,1,50,6.13V43.88A6.13,6.13,0,0,1,43.88,50M6.12,2.11a4,4,0,0,0-4,4V43.88a4,4,0,0,0,4,4H43.88a4,4,0,0,0,4-4V6.13a4,4,0,0,0-4-4Z"/></g></g></svg>
